X: 33223
T: Pub With No Beer, The
R: waltz
M: 3/4
K: Edorian
GAB eed|BAB ggf|edA dFA|dAf AeA|
dAB eed|BAB ggf|edA FDF|AFG EE2|
GAB eed|BAB ggf|edA dFA|dAf AeA|
dAB eed|BAB ggf|edA FDF|AFG EE2|
GAB EED|GEB EED|GEA BAF|DFA FdB|
AFB EED|GEB EEF|GBA FDF|AFG EE2|
GAB EED|GEB EED|GEA BAF|DFA FdB|
AFB EED|GEB EEF|GBA FDF|AFG EE2|

